packages/assets/static/images/icons/truck.svg

<svg width="24" height="24" viewBox="0 0 24 24" xmlns="http://www.w3.org/2000/svg">
<path d="M23.1959 9.84082L21.8834 6.55957C21.772 6.28195 21.5799 6.04416 21.3318 5.87701C21.0838 5.70985 20.7912 5.62104 20.4921 5.62207H17.2502V4.87207C17.2502 4.67316 17.1712 4.48239 17.0306 4.34174C16.8899 4.20109 16.6992 4.12207 16.5002 4.12207H2.25024C1.85242 4.12207 1.47089 4.28011 1.18958 4.56141C0.908279 4.84271 0.750244 5.22425 0.750244 5.62207V16.1221C0.750244 16.5199 0.908279 16.9014 1.18958 17.1827C1.47089 17.464 1.85242 17.6221 2.25024 17.6221H3.84399C4.00922 18.2674 4.38452 18.8393 4.91073 19.2478C5.43693 19.6563 6.08412 19.878 6.75024 19.878C7.41637 19.878 8.06356 19.6563 8.58976 19.2478C9.11597 18.8393 9.49127 18.2674 9.6565 17.6221H14.344C14.5092 18.2674 14.8845 18.8393 15.4107 19.2478C15.9369 19.6563 16.5841 19.878 17.2502 19.878C17.9164 19.878 18.5636 19.6563 19.0898 19.2478C19.616 18.8393 19.9913 18.2674 20.1565 17.6221H21.7502C22.1481 17.6221 22.5296 17.464 22.8109 17.1827C23.0922 16.9014 23.2502 16.5199 23.2502 16.1221V10.1221C23.2505 10.0257 23.232 9.93017 23.1959 9.84082ZM17.2502 7.12207H20.4921L21.3921 9.37207H17.2502V7.12207ZM2.25024 5.62207H15.7502V11.6221H2.25024V5.62207ZM6.75024 18.3721C6.45357 18.3721 6.16356 18.2841 5.91689 18.1193C5.67022 17.9545 5.47796 17.7202 5.36443 17.4461C5.25089 17.172 5.22119 16.8704 5.27907 16.5794C5.33694 16.2885 5.47981 16.0212 5.68958 15.8114C5.89936 15.6016 6.16664 15.4588 6.45761 15.4009C6.74858 15.343 7.05018 15.3727 7.32427 15.4863C7.59836 15.5998 7.83263 15.792 7.99745 16.0387C8.16227 16.2854 8.25024 16.5754 8.25024 16.8721C8.25024 17.2699 8.09221 17.6514 7.8109 17.9327C7.5296 18.214 7.14807 18.3721 6.75024 18.3721ZM14.344 16.1221H9.6565C9.49127 15.4768 9.11597 14.9048 8.58976 14.4963C8.06356 14.0879 7.41637 13.8662 6.75024 13.8662C6.08412 13.8662 5.43693 14.0879 4.91073 14.4963C4.38452 14.9048 4.00922 15.4768 3.84399 16.1221H2.25024V13.1221H15.7502V14.2761C15.4054 14.4755 15.1035 14.7413 14.8621 15.0582C14.6207 15.375 14.4446 15.7366 14.344 16.1221ZM17.2502 18.3721C16.9536 18.3721 16.6636 18.2841 16.4169 18.1193C16.1702 17.9545 15.978 17.7202 15.8644 17.4461C15.7509 17.172 15.7212 16.8704 15.7791 16.5794C15.8369 16.2885 15.9798 16.0212 16.1896 15.8114C16.3994 15.6016 16.6666 15.4588 16.9576 15.4009C17.2486 15.343 17.5502 15.3727 17.8243 15.4863C18.0984 15.5998 18.3326 15.792 18.4974 16.0387C18.6623 16.2854 18.7502 16.5754 18.7502 16.8721C18.7502 17.2699 18.5922 17.6514 18.3109 17.9327C18.0296 18.214 17.6481 18.3721 17.2502 18.3721ZM21.7502 16.1221H20.1565C19.9893 15.4783 19.6133 14.9082 19.0874 14.5011C18.5615 14.0939 17.9153 13.8727 17.2502 13.8721V10.8721H21.7502V16.1221Z"/>
</svg>

<svg viewBox="0 0 24 24" xmlns="http://www.w3.org/2000/svg" aria-hidden="true" fill="currentColor"><path d="m23.196 9.84-1.313-3.28a1.49 1.49 0 0 0-1.39-.938H17.25v-.75a.75.75 0 0 0-.75-.75H2.25a1.5 1.5 0 0 0-1.5 1.5v10.5a1.5 1.5 0 0 0 1.5 1.5h1.594a3 3 0 0 0 5.813 0h4.687a3 3 0 0 0 5.813 0h1.593a1.5 1.5 0 0 0 1.5-1.5v-6a.8.8 0 0 0-.054-.281M17.25 7.123h3.242l.9 2.25H17.25zm-15-1.5h13.5v6H2.25zm4.5 12.75a1.5 1.5 0 1 1 0-3 1.5 1.5 0 0 1 0 3m7.594-2.25H9.657a3 3 0 0 0-5.813 0H2.25v-3h13.5v1.154a3 3 0 0 0-1.406 1.846m2.906 2.25a1.5 1.5 0 1 1 0-3 1.5 1.5 0 0 1 0 3m4.5-2.25h-1.593a3.005 3.005 0 0 0-2.907-2.25v-3h4.5z"/></svg>
